X: 1664
T: The Boys from the East
M:2/4
L:1/16
B:O'Neill's 1664
K:A
(3EFG \
| AGAE CEAc | e^dec Acea | faeadaca | BABc dBGE |
| AGAE CEAc | e^dec Acea | (3fga ed cBAG | A2A2A2 :|
|: E-G \
| BABG EGBc | dcdB GBed | cBcA EAcd | e^cef e2f-g |
| agae fdBG | ABcd eaec | dfed cBAG | A2A2A2 :|


